X: 10181
T: LADY HERRIOT HOPES REEL
R: reel
B: "Edinburgh Repository of Music" v.1 p.18 #1
F: http://digital.nls.uk/special-collections-of-printed-music/pageturner.cfm?id=87776133
Z: 2015 John Chambers <jc:trillian.mit.edu>
N: Missing 1/8 count in bar 8 fixed by adding another g note.
M: C|
L: 1/8
K: G
B |\
GBdg edcB | g2bg aAAB |\
GBdg edcB | cAdB G/G/G G :|\
|: d |\
gdga b2ag | fdad bdad |
gdga b2ag | dg fa g/g/g ga |\
gdga b2ag | agab c'bab |\
gedc B2ge | d>B c>A G/G/G G :|
